lib/svgs/testplan.svg

<?xml version="1.0" encoding="UTF-8"?>
<svg width="16px" height="16px" viewBox="0 0 16 16" version="1.1" xmlns="http://www.w3.org/2000/svg" xmlns:xlink="http://www.w3.org/1999/xlink">
    <!-- Generator: sketchtool 51.3 (57544) - http://www.bohemiancoding.com/sketch -->
    <title>test-case/testplan</title>
    <desc>Created with sketchtool.</desc>
    <defs></defs>
    <g id="Icons" stroke="none" stroke-width="1" fill="none" fill-rule="evenodd">
        <g id="Artboard" transform="translate(-49.000000, -214.000000)" fill="#000000" fill-rule="nonzero">
            <g id="test-case/testplan" transform="translate(49.000000, 214.000000)">
                <path d="M11.3664547,0.749140267 C11.3744611,0.508077631 11.5352707,0.28669978 11.781077,0.210883214 C12.0893983,0.115784497 12.4146927,0.285714336 12.5076424,0.590432133 L12.8801337,1.81157363 C12.9730834,2.11629143 12.7984902,2.44040675 12.490169,2.53550547 L11.2545867,2.91660888 C10.9462654,3.01170759 10.620971,2.84177775 10.5280213,2.53705996 C10.4359501,2.23522206 10.6063885,1.91435155 10.9092801,1.81588562 C10.0064262,1.387157 9.01130295,1.15918686 7.98104027,1.15918686 C4.21547137,1.15918686 1.16287464,4.20210303 1.16287464,7.95573035 C1.16287464,9.53987744 1.7075451,11.03923 2.68961778,12.2422618 C2.89229941,12.4905453 2.85469147,12.8556037 2.60561809,13.0576426 C2.35654472,13.2596814 1.99032493,13.2221928 1.7876433,12.9739093 C0.638312322,11.5659873 -1.19474436e-16,9.80886024 0,7.95573035 C2.68817481e-16,3.5619018 3.57323344,-2.6497905e-16 7.98104027,0 C9.1699381,7.36052917e-17 10.3204211,0.26005223 11.3664547,0.749140267 Z M5.19529609,15.3667269 C5.21701894,15.614377 5.07506607,15.8584458 4.83060979,15.9571013 C4.53187407,16.0776624 4.19318638,15.9354112 4.07412968,15.6393744 L3.59701583,14.4530215 C3.47795913,14.1569847 3.62361776,13.8192654 3.92235349,13.6987043 L5.11952214,13.2155617 C5.41825787,13.0950006 5.75694555,13.2372518 5.87600225,13.5332886 C5.99069327,13.81847 5.85972668,14.1423331 5.58290458,14.27348 C6.35104393,14.566478 7.17340167,14.7198896 8.01895973,14.7198896 C11.7845286,14.7198896 14.8371254,11.6769735 14.8371254,7.92334617 C14.8371254,6.48582478 14.3890262,5.11700737 13.5680278,3.97320751 C13.3811704,3.71288117 13.4414,3.35084747 13.7025546,3.16458261 C13.9637091,2.97831775 14.3268946,3.03835644 14.513752,3.29868278 C15.474829,4.63763762 16,6.24188773 16,7.92334617 C16,12.3171747 12.4267666,15.8790765 8.01895973,15.8790765 C7.0403339,15.8790765 6.08696388,15.7030001 5.19529609,15.3667269 Z M8.92700128,7.36809298 L10.4101903,5.92237358 C10.6398144,5.69855043 11.0121086,5.69855043 11.2417327,5.92237358 C11.4713568,6.14619672 11.4713568,6.50908573 11.2417327,6.73290887 L9.75860843,8.1785652 L7.72009619,10.1661974 C7.49045774,10.3901042 7.11806457,10.3901047 6.88842548,10.1661985 L4.81310325,8.14268624 C4.58351425,7.91882889 4.58357117,7.55593988 4.81323037,7.33215096 C5.04288958,7.10836204 5.41518381,7.10841751 5.64477281,7.33227487 L7.30425912,8.95033247 L8.92700128,7.36809298 Z" id="testplan"></path>
            </g>
        </g>
    </g>
</svg>

<svg xmlns="http://www.w3.org/2000/svg" viewBox="0 0 16 16">
    <path d="M11.366.75a.586.586 0 0 1 1.142-.16l.372 1.222a.583.583 0 0 1-.39.724l-1.235.38a.578.578 0 0 1-.727-.379.583.583 0 0 1 .381-.721 6.807 6.807 0 0 0-9.746 6.14c0 1.584.545 3.083 1.527 4.286a.578.578 0 0 1-.084.816.583.583 0 0 1-.818-.084A7.908 7.908 0 0 1 0 7.956 7.968 7.968 0 0 1 7.981 0c1.189 0 2.34.26 3.385.75zm-6.17 14.617a.584.584 0 0 1-1.122.272l-.477-1.186a.581.581 0 0 1 .325-.754l1.198-.483a.58.58 0 0 1 .756.317.581.581 0 0 1-.293.74 6.807 6.807 0 0 0 9.254-6.35 6.747 6.747 0 0 0-1.269-3.95.578.578 0 0 1 .135-.808.583.583 0 0 1 .81.134A7.904 7.904 0 0 1 16 7.923a7.968 7.968 0 0 1-10.805 7.444zm3.731-7.999l1.483-1.446a.599.599 0 0 1 .832 0c.23.224.23.587 0 .81L9.759 8.18 7.72 10.166a.599.599 0 0 1-.832 0L4.813 8.143a.563.563 0 0 1 0-.81.599.599 0 0 1 .832 0l1.66 1.617 1.622-1.582z"/>
</svg>
